X:61
T:Rondeau
R:dance
M:6/8
H:from Le Gop Chesterfield '93
G:C
K:Gmaj
B2c dBG|G2A B2G|B2c dBG|G2A B3:|\
g2f e2d|efg d2c| [1 B2c dBG|G2A B3:| [2 B2c dcB|cBA G3|]
